Patriotic Administration Center/Stalwart.svg

<svg xmlns="http://www.w3.org/2000/svg" viewBox="0 0 126 126">
<defs>
<style>.cls-2{fill-rule:evenodd;fill:#fff}</style>
</defs>
<path d="m80 81 3 3h30l2 2h3v1h3v1h-3l-1 1v1h2v1h-4l-3 5h-3v-1h-2v1H94v-1h-2v1h-2v-1l-2-1-3 3h-8v-6H65v6h-8l-3 3h-7s-3.9 5.6-3 8c1 2.8-2 3-2 3l-5-3s-.8-2.8 0-4c.7-1.1 6-6 6-6v-4h-7l-1-1h-8l-4 4H10l-2 2H6l-1-1V83l1-1h30l7-1v-1h4v1h2v-1h2v1h1v-1h6v1h3v-1h1v1h2v-1h1v1h15ZM49 94h6v2l-2 2h-4v-4Z" style="fill-rule:evenodd;fill:#49adc9"/>
<path class="cls-2" d="M45 62h26l2-2h8l5-2.5-5-2.5h-8l-2-2H45v9Z"/>
<path class="cls-2" d="M45 48h26l2-2h8l5-2.5-5-2.5h-8l-2-2H45v9Z"/>
<path class="cls-2" d="M45 34h26l2-2h8l5-2.5-5-2.5h-8l-2-2H45v9Z"/>
</svg>

<svg id="HD2-STA" xmlns="http://www.w3.org/2000/svg" xmlns:xlink="http://www.w3.org/1999/xlink" viewBox="0 0 126 126">
  <defs>
    <style>
      .cls-1 {
        fill: #49adc9;
      }

      .cls-1, .cls-2 {
        fill-rule: evenodd;
      }

      .cls-2 {
        fill: #fff;
      }
    </style>
  </defs>
  <path class="cls-1" d="M80,81l3,3h30l2,2h3v1h3v1h-3l-1,1v1h2v1h-4l-3,5h-3V95h-2v1H94V95H92v1H90V95l-2-1-3,3H77V91H65v6H57l-3,3H47s-3.855,5.6-3,8c0.984,2.76-2,3-2,3l-5-3s-0.774-2.848,0-4c0.748-1.113,6-6,6-6V94H36l-1-1H27l-4,4H10L8,99H6L5,98V83l1-1H36l7-1V80h4v1h2V80h2v1h1V80h6v1h3V80h1v1h2V80h1v1H80ZM49,94h6v2l-2,2H49V94Z"/>
  <path class="cls-2" d="M45,62H71l2-2h8l5-2.469L81,55H73l-2-2H45v9Z"/>
  <path id="Shape_39_copy" data-name="Shape 39 copy" class="cls-2" d="M45,48H71l2-2h8l5-2.469L81,41H73l-2-2H45v9Z"/>
  <path id="Shape_39_copy_2" data-name="Shape 39 copy 2" class="cls-2" d="M45,34H71l2-2h8l5-2.469L81,27H73l-2-2H45v9Z"/>
</svg>
